icons/op-error-24.svg

<svg width="24" height="24" viewBox="0 0 24 24" fill="none" xmlns="http://www.w3.org/2000/svg">
<path d="M17.9538 6.33628C14.8073 3.22124 9.7414 3.22124 6.62635 6.33628C3.51131 9.45133 3.51131 14.5172 6.62635 17.6637C9.77286 20.7788 14.8073 20.7788 17.9538 17.6637C21.0688 14.5487 21.0688 9.45133 17.9538 6.33628ZM11.5772 6.33628H13.2448C13.7483 6.33628 13.8112 6.61947 13.8112 6.77679V6.93412L13.7797 7.12291L13.4336 13.1642C13.4022 13.6362 13.2134 13.7306 12.8673 13.7306H11.9862C11.6401 13.7306 11.4513 13.6362 11.3884 13.1957L11.0423 6.93412V6.77679C11.0423 6.61947 11.1052 6.33628 11.5772 6.33628ZM12.4267 17.9784C11.5457 17.9784 10.8535 17.2861 10.8535 16.4366C10.8535 15.5556 11.5457 14.8633 12.4267 14.8633C13.3078 14.8633 14 15.5556 14 16.4366C14 17.2861 13.2763 17.9784 12.4267 17.9784Z" fill="black"/>
</svg>

<svg xmlns="http://www.w3.org/2000/svg" width="24" height="24" viewBox="0 0 24 24"><path d="M17.954 6.336c-3.147-3.115-8.213-3.115-11.328 0s-3.115 8.181 0 11.328a8.034 8.034 0 0 0 11.328 0c3.115-3.115 3.115-8.213 0-11.328Zm-6.377 0h1.668c.503 0 .566.283.566.441v.157l-.031.189-.346 6.041c-.032.472-.221.567-.567.567h-.881c-.346 0-.535-.095-.598-.535l-.346-6.262v-.157c0-.158.063-.441.535-.441Zm.85 11.642c-.881 0-1.573-.692-1.573-1.541 0-.881.692-1.574 1.573-1.574S14 15.556 14 16.437c0 .849-.724 1.541-1.573 1.541Z"/></svg>
